jsapp/svg-icons/folder.svg

<svg height="40" viewBox="0 0 40 40" width="40" xmlns="http://www.w3.org/2000/svg"><path d="m12 27v-13h4.5l1.65 2.2c.375.501.974.8 1.6.8h8.25l.001 10zm16-12h-8.25l-1.65-2.2c-.375-.501-.974-.8-1.6-.8h-4.5c-1.103 0-2 .898-2 2v13c0 1.103.897 2 2 2h16c1.103 0 2-.897 2-2v-10c0-1.102-.897-2-2-2z" fill-rule="evenodd"/></svg>

<?xml version="1.0" encoding="UTF-8"?>
<svg width="40px" height="40px" viewBox="0 0 40 40" version="1.1" xmlns="http://www.w3.org/2000/svg" xmlns:xlink="http://www.w3.org/1999/xlink">
    <!-- Generator: Sketch 50.2 (55047) - http://www.bohemiancoding.com/sketch -->
    <title>Icons/folder</title>
    <desc>Created with Sketch.</desc>
    <defs>
        <path d="M12,27 L12,14 L16.5,14 L18.15,16.2 C18.525,16.701 19.124,17 19.75,17 L28,17 L28.001,27 L12,27 Z M28,15 L19.75,15 L18.1,12.8 C17.725,12.299 17.126,12 16.5,12 L12,12 C10.897,12 10,12.898 10,14 L10,27 C10,28.103 10.897,29 12,29 L28,29 C29.103,29 30,28.103 30,27 L30,17 C30,15.898 29.103,15 28,15 L28,15 Z" id="path-1"></path>
    </defs>
    <g id="Icons/folder" stroke="none" stroke-width="1" fill="none" fill-rule="evenodd">
        <mask id="mask-2" fill="white">
            <use xlink:href="#path-1"></use>
        </mask>
        <use id="Mask" fill="#000000" xlink:href="#path-1"></use>
    </g>
</svg>
